picto/emergency-window-right-framed.svg

<svg class="color-immutable" width="30" height="30" viewBox="0 0 30 30" fill="none" xmlns="http://www.w3.org/2000/svg"><path d="M30 0H0V30H30V0Z" fill="#237F52"/><path d="M25.5 3C26.325 3 27 3.675 27 4.5V25.5C27 26.325 26.325 27 25.5 27H4.5C3.675 27 3 26.325 3 25.5V4.5C3 3.675 3.675 3 4.5 3H25.5ZM25.5 2.625H4.5C3.46613 2.625 2.625 3.46613 2.625 4.5V25.5C2.625 26.5339 3.46613 27.375 4.5 27.375H25.5C26.5339 27.375 27.375 26.5339 27.375 25.5V4.5C27.375 3.46613 26.5339 2.625 25.5 2.625Z" fill="white"/><path d="M21.8992 9C22.6453 9 23.25 9.60382 23.25 10.35C23.25 11.0954 22.6453 11.7001 21.8992 11.7001C21.1547 11.7001 20.55 11.0954 20.55 10.35C20.5499 9.60382 21.1547 9 21.8992 9ZM12.3721 18L18.2429 12.1285H16.8712L14.9446 14.0567C14.8528 14.1476 14.7301 14.1982 14.6011 14.1982C14.3335 14.1982 14.1161 13.9807 14.1161 13.7141C14.1161 13.5842 14.1673 13.4615 14.2583 13.3713L16.3016 11.3287C16.4307 11.1988 16.6078 11.1251 16.7913 11.1251H19.2114C20.1689 11.1251 20.9441 11.9015 20.9441 12.8567V15.281H22.9173C23.205 15.281 23.4374 15.5126 23.4374 15.8003C23.4374 16.0877 23.205 16.3202 22.9173 16.3202H20.4589C20.172 16.3202 19.939 16.0877 19.939 15.8003V13.861L17.6617 16.1397L19.7368 18.2148C19.8676 18.3464 19.939 18.5212 19.939 18.7061V22.8991C19.939 23.2816 19.6295 23.5925 19.2472 23.5925C18.8647 23.5925 18.5542 23.2816 18.5542 22.8991V19.0899L15.9463 16.4834L14.4297 18H12.3721Z" fill="white"/><path d="M19.5 17.4475L18.375 16.3225V15.9564L19.5 14.8307V17.4475Z" fill="white"/><path d="M19.5 6V10.7702C19.4056 10.7572 19.3094 10.75 19.2115 10.75H18.375V7.125H7.125V18.375H17.3085L18.1792 19.2452V19.5H6V6H19.5Z" fill="white"/></svg>

<svg class="color-immutable" width="30" height="30" viewBox="0 0 30 30" fill="none" xmlns="http://www.w3.org/2000/svg"><g clip-path="url(#a)"><path d="M30 0H0v30h30V0Z" fill="#237F52"/><path d="M25.5 3c.825 0 1.5.675 1.5 1.5v21c0 .825-.675 1.5-1.5 1.5h-21c-.825 0-1.5-.675-1.5-1.5v-21C3 3.675 3.675 3 4.5 3h21Zm0-.375h-21A1.877 1.877 0 0 0 2.625 4.5v21c0 1.034.841 1.875 1.875 1.875h21a1.877 1.877 0 0 0 1.875-1.875v-21A1.877 1.877 0 0 0 25.5 2.625Z" fill="#fff"/><path d="M21.9 9a1.35 1.35 0 1 1 0 2.7 1.35 1.35 0 0 1 0-2.7Zm-9.528 9 5.87-5.871h-1.37l-1.927 1.928a.487.487 0 0 1-.829-.343c0-.13.051-.253.142-.343l2.044-2.042a.692.692 0 0 1 .49-.204h2.42c.957 0 1.732.777 1.732 1.732v2.424h1.973a.519.519 0 1 1 0 1.04H20.46a.52.52 0 0 1-.52-.52v-1.94l-2.277 2.279 2.075 2.075c.13.131.202.306.202.491V22.9a.693.693 0 1 1-1.385 0v-3.81l-2.608-2.606L14.43 18h-2.058Z" fill="#fff"/><path d="m19.5 17.448-1.125-1.125v-.367l1.125-1.125v2.617Z" fill="#fff"/><path d="M19.5 6v4.77a2.112 2.112 0 0 0-.288-.02h-.837V7.125H7.125v11.25h10.183l.871.87v.255H6V6h13.5Z" fill="#fff"/></g><defs><clipPath id="a"><path fill="#fff" d="M0 0h30v30H0z"/></clipPath></defs></svg>
